X:124
T: DIE ALTE FICHTE SCHWANKET
N: B0156
O: Europa, Mitteleuropa, Deutschland
R: Ballade, Romanze
M: 4/4
L: 1/8
K: A
A2 | G2E2A2B2 | =c4B2
e2 | d2B2=cBA2 | B4z2
B2 | =c2d2e2d2 | =c3BA2
B2 | E2A2=cBAG | A4z2

@@@ Tune index: 1927
